svgs/duotone/bus-simple.svg

<svg xmlns="http://www.w3.org/2000/svg" viewBox="0 0 448 512"><!--! Font Awesome Pro 6.6.0 by @fontawesome - https://fontawesome.com License - https://fontawesome.com/license (Commercial License) Copyright 2024 Fonticons, Inc. --><path class="fa-secondary" style="fill:var(--fa-secondary-color,inherit);opacity:var(--fa-secondary-opacity,.4);" d="M32 448l96 0 0 32c0 17.7-14.3 32-32 32l-32 0c-17.7 0-32-14.3-32-32l0-32zM64 128c0-17.7 14.3-32 32-32l256 0c17.7 0 32 14.3 32 32l0 128c0 17.7-14.3 32-32 32L96 288c-17.7 0-32-14.3-32-32l0-128zM320 448l96 0 0 32c0 17.7-14.3 32-32 32l-32 0c-17.7 0-32-14.3-32-32l0-32z"/><path class="fa-primary" style="fill:var(--fa-primary-color,inherit);opacity:var(--fa-primary-opacity,1);" d="M224 0C348.8 0 448 35.2 448 80l0 16 0 320c0 17.7-14.3 32-32 32L32 448c-17.7 0-32-14.3-32-32L0 96 0 80C0 35.2 99.2 0 224 0zM64 128l0 128c0 17.7 14.3 32 32 32l256 0c17.7 0 32-14.3 32-32l0-128c0-17.7-14.3-32-32-32L96 96c-17.7 0-32 14.3-32 32zM80 400a32 32 0 1 0 0-64 32 32 0 1 0 0 64zm288 0a32 32 0 1 0 0-64 32 32 0 1 0 0 64z"/></svg>

<svg xmlns="http://www.w3.org/2000/svg" viewBox="0 0 448 512"><!--! Font Awesome Pro 6.4.2 by @fontawesome - https://fontawesome.com License - https://fontawesome.com/license (Commercial License) Copyright 2023 Fonticons, Inc. --><path class="fa-primary" style="fill:var(--fa-primary-color,inherit);opacity:var(--fa-primary-opacity,1);" d="M224 0C348.8 0 448 35.2 448 80V96 416c0 17.7-14.3 32-32 32H32c-17.7 0-32-14.3-32-32V96 80C0 35.2 99.2 0 224 0zM64 128V256c0 17.7 14.3 32 32 32H352c17.7 0 32-14.3 32-32V128c0-17.7-14.3-32-32-32H96c-17.7 0-32 14.3-32 32zM80 400a32 32 0 1 0 0-64 32 32 0 1 0 0 64zm288 0a32 32 0 1 0 0-64 32 32 0 1 0 0 64z"/><path class="fa-secondary" style="fill:var(--fa-secondary-color,inherit);opacity:var(--fa-secondary-opacity,.4);" d="M64 128c0-17.7 14.3-32 32-32H352c17.7 0 32 14.3 32 32V256c0 17.7-14.3 32-32 32H96c-17.7 0-32-14.3-32-32V128zM32 448h96v32c0 17.7-14.3 32-32 32H64c-17.7 0-32-14.3-32-32V448zm384 0v32c0 17.7-14.3 32-32 32H352c-17.7 0-32-14.3-32-32V448h96z"/></svg>
